evolvere-2-blue/status/16/battery-020.svg

<?xml version="1.0" encoding="UTF-8"?>
<!-- Created with Inkscape (http://www.inkscape.org/) -->
<svg width="16" height="16" version="1.1" xmlns="http://www.w3.org/2000/svg" xmlns:cc="http://creativecommons.org/ns#" xmlns:dc="http://purl.org/dc/elements/1.1/" xmlns:rdf="http://www.w3.org/1999/02/22-rdf-syntax-ns#">
	<metadata>
		<rdf:RDF>
			<cc:Work rdf:about="">
				<dc:format>image/svg+xml</dc:format>
				<dc:type rdf:resource="http://purl.org/dc/dcmitype/StillImage"/>
			</cc:Work>
		</rdf:RDF>
	</metadata>
	<defs id="e">
		<style id="current-color-scheme" type="text/css">.ColorScheme-Text {color:#090d11;}
			.ColorScheme-Background{color:#ffffff;}</style>
		<style type="text/css">.ColorScheme-Text {color:#090d11;}
			.ColorScheme-Background{color:#ffffff;}</style>
	</defs>
	<path class="ColorScheme-Background" d="m7 0c-0.7507 0-1.2835 0.5009-1.625 1.125-1.8921 0.3123-3.375 1.9003-3.375 3.875v7c0 2.194 1.8059 4 4 4h3c2.194 0 3.9999-1.806 4-4v-7c0-1.9704-1.489-3.5576-3.375-3.875-0.3416-0.6241-0.8744-1.125-1.625-1.125zm0 1h1c0.554 0 1 0.446 1 1 1.6447 0 3 1.3553 3 3v7c0 1.6447-1.3553 3-3 3h-3c-1.6447 0-3-1.3553-3-3v-7c0-1.6447 1.3553-3 3-3 0-0.554 0.446-1 1-1zm-3 10v1h7v-1z" style="fill-opacity:.5;fill:currentColor"/>
	<path class="ColorScheme-Text" d="m7 1c-0.554 0-1 0.446-1 1-1.6447 0-3 1.3553-3 3v7c0 1.6447 1.3553 3 3 3h3c1.6447 0 3-1.3553 3-3v-7c0-1.6447-1.3553-3-3-3 0-0.554-0.446-1-1-1zm-1 2h3c1.108 0 2 0.892 2 2v7h-7v-7c0-1.108 0.892-2 2-2z" style="fill-opacity:.75;fill:currentColor"/>
</svg>

<?xml version="1.0" encoding="UTF-8" standalone="no"?>
<!-- Created with Inkscape (http://www.inkscape.org/) -->

<svg
   xmlns:dc="http://purl.org/dc/elements/1.1/"
   xmlns:cc="http://creativecommons.org/ns#"
   xmlns:rdf="http://www.w3.org/1999/02/22-rdf-syntax-ns#"
   xmlns:svg="http://www.w3.org/2000/svg"
   xmlns="http://www.w3.org/2000/svg"
   xmlns:sodipodi="http://sodipodi.sourceforge.net/DTD/sodipodi-0.dtd"
   xmlns:inkscape="http://www.inkscape.org/namespaces/inkscape"
   width="16"
   height="16"
   id="svg27665"
   version="1.1"
   inkscape:version="0.48.4 r9939"
   sodipodi:docname="battery-020.svg">
  <defs
     id="defs27667" />
  <sodipodi:namedview
     id="base"
     pagecolor="#cbcdd6"
     bordercolor="#666666"
     borderopacity="1.0"
     inkscape:pageopacity="1"
     inkscape:pageshadow="2"
     inkscape:zoom="32.000002"
     inkscape:cx="6.7820072"
     inkscape:cy="7.1484404"
     inkscape:document-units="px"
     inkscape:current-layer="layer1"
     showgrid="true"
     inkscape:window-width="1920"
     inkscape:window-height="1017"
     inkscape:window-x="-5"
     inkscape:window-y="26"
     inkscape:window-maximized="1"
     inkscape:snap-bbox="true"
     inkscape:bbox-paths="true"
     inkscape:bbox-nodes="true"
     inkscape:snap-bbox-edge-midpoints="true"
     inkscape:snap-bbox-midpoints="true"
     inkscape:object-paths="true"
     inkscape:snap-intersection-paths="true"
     inkscape:object-nodes="true"
     inkscape:snap-smooth-nodes="true"
     inkscape:snap-midpoints="true"
     inkscape:snap-object-midpoints="true"
     inkscape:snap-center="true"
     inkscape:snap-global="true"
     showguides="true"
     inkscape:guide-bbox="true"
     fit-margin-top="0"
     fit-margin-left="0"
     fit-margin-right="0"
     fit-margin-bottom="0"
     inkscape:showpageshadow="false">
    <inkscape:grid
       type="xygrid"
       id="grid3070"
       empspacing="5"
       visible="true"
       enabled="true"
       snapvisiblegridlinesonly="true"
       originx="-47.999653px"
       originy="-0.00031276823px" />
  </sodipodi:namedview>
  <metadata
     id="metadata27670">
    <rdf:RDF>
      <cc:Work
         rdf:about="">
        <dc:format>image/svg+xml</dc:format>
        <dc:type
           rdf:resource="http://purl.org/dc/dcmitype/StillImage" />
        <dc:title />
      </cc:Work>
    </rdf:RDF>
  </metadata>
  <g
     inkscape:label="Camada 1"
     inkscape:groupmode="layer"
     id="layer1"
     transform="translate(3316.4171,-2100.7186)">
    <path
       style="color:#000000;fill:#27303a;fill-opacity:0.75328081999999996;fill-rule:nonzero;stroke:none;stroke-width:1.20000005;marker:none;visibility:visible;display:inline;overflow:visible;enable-background:accumulate"
       d="M 7,1 C 6.446,1 6,1.446 6,2 4.3553,2 3,3.3553 3,5 l 0,7 c 0,1.6447 1.3553,3 3,3 l 3,0 c 1.6447,0 3,-1.3553 3,-3 L 12,5 C 12,3.3553 10.6447,2 9,2 9,1.446 8.554,1 8,1 z M 6,4 9,4 c 0.5713,0 1,0.4287 1,1 l 0,7 -5,0 0,-7 C 5,4.4287 5.4287,4 6,4 z"
       transform="translate(-3316.4171,2100.7186)"
       id="path3064"
       inkscape:connector-curvature="0"
       sodipodi:nodetypes="scsssssscsssssccss" />
    <path
       style="font-size:medium;font-style:normal;font-variant:normal;font-weight:normal;font-stretch:normal;text-indent:0;text-align:start;text-decoration:none;line-height:normal;letter-spacing:normal;word-spacing:normal;text-transform:none;direction:ltr;block-progression:tb;writing-mode:lr-tb;text-anchor:start;baseline-shift:baseline;color:#000000;fill:#f1f3f5;fill-opacity:0.90288714000000003;fill-rule:nonzero;stroke:none;stroke-width:2;marker:none;visibility:visible;display:inline;overflow:visible;enable-background:accumulate;font-family:Sans;-inkscape-font-specification:Sans"
       d="M 7 0 C 6.2493 0 5.7165 0.5009 5.375 1.125 C 3.4829 1.4373 2 3.0253 2 5 L 2 12 C 2 14.194 3.8059 16 6 16 L 9 16 C 11.194 16 12.9999 14.194 13 12 L 13 5 C 13 3.0296 11.511 1.4424 9.625 1.125 C 9.2834 0.5009 8.7506 0 8 0 L 7 0 z M 7 1 L 8 1 C 8.554 1 9 1.446 9 2 C 10.6447 2 12 3.3553 12 5 L 12 12 C 12 13.6447 10.6447 15 9 15 L 6 15 C 4.3553 15 3 13.6447 3 12 L 3 5 C 3 3.3553 4.3553 2 6 2 C 6 1.446 6.446 1 7 1 z M 5 11 L 5 12 L 10 12 L 10 11 L 5 11 z "
       id="use6071-7"
       transform="translate(-3316.4171,2100.7186)" />
  </g>
</svg>
